X:227145374413001
T:12-12-10-10-2-4-5-2-12-10-6-3-6-8-8-3
%%setfont-1 Courier-Bold 8
T:$1K.516f::54:130:42:156:105:55:159:30:35:77:64:56:76:168:89:83::$0
T:$1Perm. No.: 227145374413001$0
M:3/8
L:1/8
Q:1/8=111
%%staves [1 2]
V:1 clef=treble
V:2 clef=bass
K:C
%1
[V:1]|: [cE][cE][cE] |\
[V:2]|: C,C,C,   |\
%2
[V:1] [cE][cE][cE] |\
[V:2] C,C,C,   |\
%3
[V:1] B/c/d/B/A/G/ |\
[V:2] G,,2z |\
%4
[V:1] c/G/e/c/g |\
[V:2] [G,2E,2]z |\
%5
[V:1] ^fa/f/d/f/ |\
[V:2] C,2z |\
%6
[V:1] gbd |\
[V:2] [D,2B,,2]z |\
%7
[V:1] e/g/d/c/B/A/ \
[V:2] C,D,D,, \
%8a
[V:1]|1 [g2d2B2G2]z :|2
[V:2]|1 G,,G,/=F,/E,/D,/ :|2
%8b
[V:1] [g2d2B2G2]z |:\
[V:2] G,,B,/G,/^F,/E,/ |:\
%9
[V:1] Ad^f |\
[V:2] [^F,2D,2][A,C,] |\
%10
[V:1] g/b/gd |\
[V:2] [D,2B,,2][G,B,,] |\
%11
[V:1] e/g/c'/g/e/c/ |\
[V:2] [G,2C,2][G,C,] |\
%12
[V:1] d/B/Gz |\
[V:2] [G,2G,,2]G, |\
%13
[V:1] c'/b/c'/g/e/c/ |\
[V:2] [E,2C,2][G,C,] |\
%14
[V:1] gf/e/d/c/ |\
[V:2] [E,2C,2][G,E,] |\
%15
[V:1] f/e/dg |\
[V:2] F,/E,/D,G, |\
%16
[V:1] c2z :|]
[V:2] C,G,,C,, :|]
